!!!!SEGMENT: pl-cz--iii-553--001-006_raszek-waclaw--missa-in-f-sanctus.krn
!!!cenid: 18xx:999
!!!COM: Raszek, Wacław
!!!COM-rismID:
!!!CDT: <1848->1848
!!!CNT:
!!!OPR: Missa in F
!!!OTL: Sanctus
!!!OMV: 006
!!!PDT: 1829
!!!AGN: Sacred; Mass
!!!SMS-siglum: PL-CZ
!!!SMS-shelfmark: III-553
!!!SMS-shelfwork: 001-006 M
!!!SMS-variant:
!!!SMS-altvar:
!!!NIFC-rismSourceID: 300001048
!!!NIFC-islandoraID: pl-cz:38806
!!!URL-pdf-islandora: https://repozytorium.nifc.pl/islandora/object/pl-cz%3A38806/datastream/PDF/view
!!!URL-scan:
!!!ONB-nifc: UWAGA: części Mszy: Kyrie, Gloria, Credo, Et incarnatus, Et resurrexit, Sanctus, Pleni sunt, Benedictus, Agnus Dei, Dona nobis
!!!AIN: 1 alto 1 bass 2 clars 2 cor 1 organ 1 soprn 1 tenor 1 viola 2 violn
!!!key: F
**kern	**dynam	**kern	**dynam	**kern	**dynam	**kern	**dynam	**kern	**text	**dynam	**kern	**text	**dynam	**kern	**text	**dynam	**kern	**text	**dynam	**kern	**dynam	**kern	**dynam	**kern	**dynam	**kern	**dynam
*part12	*part12	*part11	*part11	*part10	*part10	*part9	*part9	*part8	*part8	*part8	*part7	*part7	*part7	*part6	*part6	*part6	*part5	*part5	*part5	*part4	*part4	*part3	*part3	*part2	*part2	*part1	*part1
*group5	*	*group4	*	*group4	*	*group4	*	*group3	*group3	*	*group3	*group3	*	*group3	*group3	*	*group3	*group3	*	*group2	*	*group2	*	*group1	*	*group1	*
*staff12	*	*staff11	*	*staff10	*	*staff9	*	*staff8	*staff8	*	*staff7	*staff7	*	*staff6	*staff6	*	*staff5	*staff5	*	*staff4	*	*staff3	*	*staff2	*	*staff1	*
*I"Organo.	*	*I"Alto Viola	*	*I"Violino Secondo.	*	*I"Violino Primo.	*	*I"Basso.	*	*	*I"Tenore.	*	*	*I"Alto.	*	*	*I"Canto.	*	*	*I"Corno Secondo in F.	*	*I"Corno Primo in F.	*	*I"Clarinetto Secondo in B.	*	*I"Clarinetto Primo. in B.	*
*I'org	*	*I'a-vla	*	*I'vl 2	*	*I'vl 1	*	*I'B	*	*	*I'T	*	*	*I'A	*	*	*I'S	*	*	*I'cor 2 in F	*	*I'cor 1 in F	*	*I'cl 2 in B♭	*	*I'cl 1 in B♭	*
*Iorgan	*	*Iviola	*	*Ivioln	*	*Ivioln	*	*Ibass	*	*	*Itenor	*	*	*Ialto	*	*	*Isoprn	*	*	*Icor	*	*Icor	*	*Iclars	*	*Iclars	*
*ICklav	*	*ICstr	*	*ICstr	*	*ICstr	*	*ICvox	*	*	*ICvox	*	*	*ICvox	*	*	*ICvox	*	*	*ICbras	*	*ICbras	*	*ICww	*	*ICww	*
*clefF4	*	*clefC3	*	*clefG2	*	*clefG2	*	*clefF4	*	*	*clefC4	*	*	*clefC3	*	*	*clefC1	*	*	*clefG2	*	*clefG2	*	*clefG2	*	*clefG2	*
*	*	*	*	*	*	*	*	*	*	*	*ITrd0c0	*	*	*	*	*	*	*	*	*ITrd4c7	*	*ITrd4c7	*	*ITrd1c2	*	*ITrd1c2	*
*k[b-]	*	*k[b-]	*	*k[b-]	*	*k[b-]	*	*k[b-]	*	*	*k[b-]	*	*	*k[b-]	*	*	*k[b-]	*	*	*k[b-]	*	*k[b-]	*	*k[b-]	*	*k[b-]	*
*F:	*	*F:	*	*F:	*	*F:	*	*F:	*	*	*F:	*	*	*F:	*	*	*F:	*	*	*F:	*	*F:	*	*F:	*	*F:	*
*M4/4	*	*M4/4	*	*M4/4	*	*M4/4	*	*M4/4	*	*	*M4/4	*	*	*M4/4	*	*	*M4/4	*	*	*M4/4	*	*M4/4	*	*M4/4	*	*M4/4	*
*met(c)	*	*met(c)	*	*met(c)	*	*met(c)	*	*met(c)	*	*	*met(c)	*	*	*met(c)	*	*	*met(c)	*	*	*met(c)	*	*met(c)	*	*met(c)	*	*met(c)	*
=1	=1	=1	=1	=1	=1	=1	=1	=1	=1	=1	=1	=1	=1	=1	=1	=1	=1	=1	=1	=1	=1	=1	=1	=1	=1	=1	=1
*2\right	*2\right	*2\right	*2\right	*2\right	*2\right	*2\right	*2\right	*2\right	*2\right	*2\right	*2\right	*2\right	*2\right	*2\right	*2\right	*2\right	*2\right	*2\right	*2\right	*2\right	*2\right	*2\right	*2\right	*2\right	*2\right	*2\right	*2\right
*	*	*	*	*	*	*	*	*	*	*	*	*	*	*	*	*	*	*	*	*tremolo	*	*tremolo	*	*	*	*	*
!!LO:TX:t=P:problem:p=p.:global
!!LO:TX:t=P:problem:f=for.:global
!!LO:TX:t=P:problem:metrum C.:global
!LO:TX:t=P:problem=mixed beam	!	!	!	!	!	!LO:TX:a:t=Adagio	!	!LO:TX:a:t=Adagio	!	!	!LO:TX:a:t=adagio	!	!	!LO:TX:a:t=Adagio	!	!	!LO:TX:a:t=Adagio	!	!	!	!	!	!	!	!	!	!
!LO:TX:a:t=Adagio.	!	!LO:TX:a:t=Adagio.	!LO:DY:b	!LO:TX:a:t=Adagio.	!LO:DY:a	!LO:TX:a:t=Tu&colon;	!LO:DY:a	!LO:TX:b:rj:t=Tu&colon;	!	!LO:DY:b	!LO:TX:a:t=T.	!	!LO:DY:a	!LO:TX:a:t=Tutti	!	!LO:DY:a	!LO:TX:a:t=Tutti	!	!LO:DY:a:Bi:t=for	!	!	!LO:TX:a:t=Adagio.	!	!LO:TX:a:t=Adagio	!	!LO:TX:a:t=Adagio.	!
8FF\L	.	8cL 8F\	f	8aL 8f\	f	8ff\L	f	2F\	San-	f	2c\	San-	f	2a\	San-	f	2ff\	San-	f	8A/L	f	8f\L	.	8a\L	.	8ff\L	f
!	!LO:DY:b	!	!	!	!	!	!	!	!	!	!	!	!	!	!	!	!	!	!	!	!	!	!	!	!	!	!
8F\	f	8c 8F\	.	8a 8f\	.	8ff\	.	.	.	.	.	.	.	.	.	.	.	.	.	8A/	.	8f\	.	8a\	.	8ff\	.
8F\	.	8c 8F\	.	8a 8f\	.	8ff\	.	.	.	.	.	.	.	.	.	.	.	.	.	8A/	.	8f\	.	8a\	.	8ff\	.
8F\J	.	8cJ 8F\	.	8aJ 8f\	.	8ff\J	.	.	.	.	.	.	.	.	.	.	.	.	.	8A/J	.	8f\J	.	8a\J	.	8ff\J	.
*	*	*	*	*	*	*	*	*	*	*	*	*	*	*	*	*	*	*	*	*Xtremolo	*	*Xtremolo	*	*	*	*	*
!	!	!	!LO:DY:b	!	!LO:DY:b:Bi:t=p	!	!	!	!	!	!	!	!	!	!	!	!	!	!	!	!	!	!	!	!	!	!
8F\	.	8cL 8F/	p	8aL 8f/	p	8cc\L	.	4F\	-ctus	.	4A\	-ctus	.	4f\	-ctus	.	4cc\	-ctus	.	8A/	.	8f\	.	4a\	.	4cc\	.
!	!	!	!	!	!	!	!LO:DY:b	!	!	!	!	!	!	!	!	!	!	!	!	!LO:TX:t=P:problem=brak 8r	!	!	!	!	!	!	!
8r	.	8f/	.	(8a/	.	16cc\L	p	.	.	.	.	.	.	.	.	.	.	.	.	8ryy	.	4r	.	.	.	.	.
.	.	.	.	.	.	16cc\JJ	.	.	.	.	.	.	.	.	.	.	.	.	.	.	.	.	.	.	.	.	.
4r	.	8c/	.	8f/	.	(16bn\LL	.	4r	.	.	4r	.	.	4r	.	.	4r	.	.	4r	.	.	.	4r	.	4r	.
.	.	.	.	.	.	16cc\	.	.	.	.	.	.	.	.	.	.	.	.	.	.	.	.	.	.	.	.	.
.	.	8A/J	.	8c/J)	.	16dd\	.	.	.	.	.	.	.	.	.	.	.	.	.	.	.	8r	.	.	.	.	.
.	.	.	.	.	.	16cc\JJ)	.	.	.	.	.	.	.	.	.	.	.	.	.	.	.	.	.	.	.	.	.
=2	=2	=2	=2	=2	=2	=2	=2	=2	=2	=2	=2	=2	=2	=2	=2	=2	=2	=2	=2	=2	=2	=2	=2	=2	=2	=2	=2
*	*	*tremolo	*	*	*	*	*	*	*ij	*	*	*ij	*	*	*	*	*	*	*	*tremolo	*	*tremolo	*	*	*	*tremolo	*
!LO:TX:t=P:problem=mixed beam	!	!	!LO:DY:b	!	!	!	!LO:DY:a	!	!	!	!	!	!	!	!	!	!	!	!	!LO:TX:t=P:problem=2\right&colon; global	!	!	!	!	!	!	!
8BB-/L	.	8c 8F/L	f	8f/L	.	8dd\L	f	2B-\	San-	.	2B-\	San-	.	2f\	San-	.	2dd\	san-	.	8f\L	.	8f\L	.	2f/	.	8dd\L	.
!	!	!	!	!	!LO:DY:b	!	!	!	!	!	!	!	!	!	!	!	!	!	!	!	!	!	!	!	!	!	!
8B-\	.	8c 8F/	.	8f/	f	8dd\	.	.	.	.	.	.	.	.	.	.	.	.	.	8f\	.	8f\	.	.	.	8dd\	.
8B-\	.	8c 8F/	.	8f/	.	8dd\	.	.	.	.	.	.	.	.	.	.	.	.	.	8f\	.	8f\	.	.	.	8dd\	.
8B-\J	.	8c 8F/J	.	8f/J	.	8dd\J	.	.	.	.	.	.	.	.	.	.	.	.	.	8f\J	.	8f\J	.	.	.	8dd\J	.
*	*	*Xtremolo	*	*	*	*	*	*	*	*	*	*	*	*	*	*	*	*	*	*Xtremolo	*	*Xtremolo	*	*	*	*Xtremolo	*
!	!	!LO:TX:t=P:problem=mixed beam	!	!	!LO:DY:b	!LO:TX:t=P:problem=mixed beam	!LO:DY:b	!	!	!	!	!	!	!	!	!	!	!	!	!	!	!	!	!	!	!	!
4BB-/	.	8B-'/L	.	8f/L	p	8g/L	p	4BB-/	-ctus	.	4d\	-ctus	.	4f\	-ctus	.	4g\	-ctus	.	8g\	.	8g\	.	4dd\	.	4gg\	.
.	.	(8b-\	.	(8dd/	.	16gg\L	.	.	.	.	.	.	.	.	.	.	.	.	.	4r	.	8r	.	.	.	.	.
.	.	.	.	.	.	16gg\JJ	.	.	.	.	.	.	.	.	.	.	.	.	.	.	.	.	.	.	.	.	.
4r	.	8g\	.	8b-/	.	(16ff#X\LL	.	4r	.	.	4r	.	.	4r	.	.	4r	.	.	.	.	4r	.	4r	.	4r	.
.	.	.	.	.	.	16gg\	.	.	.	.	.	.	.	.	.	.	.	.	.	.	.	.	.	.	.	.	.
.	.	8f\J)	.	8g/J)	.	16aa\	.	.	.	.	.	.	.	.	.	.	.	.	.	8r	.	.	.	.	.	.	.
.	.	.	.	.	.	16gg\JJ)	.	.	.	.	.	.	.	.	.	.	.	.	.	.	.	.	.	.	.	.	.
!	!	!	!	!	!	!LO:LB:g=original	!	!	!	!	!	!	!	!	!	!	!	!	!	!	!	!	!	!	!	!	!
=3	=3	=3	=3	=3	=3	=3	=3	=3	=3	=3	=3	=3	=3	=3	=3	=3	=3	=3	=3	=3	=3	=3	=3	=3	=3	=3	=3
*tremolo	*	*tremolo	*	*	*	*	*	*	*	*	*	*	*	*	*	*	*	*	*	*tremolo	*	*tremolo	*	*	*	*	*
!	!	!LO:TX:t=P:2\right:problem	!	!	!	!	!LO:DY:b	!	!	!	!	!	!	!	!	!	!	!	!	!	!	!	!	!	!	!	!
8C/L	.	8f 8c\L	.	8b-L 8g\	.	8bb-\L	f	2C/	San-	.	2e\	San-	.	2g\	San-	.	2b-\	san-	.	8c/L	.	8g\L	.	8gg\L	.	2bb-\	.
8C/	.	8f 8c\	.	8b- 8g\	.	8bb-\	.	.	.	.	.	.	.	.	.	.	.	.	.	8c/	.	8g\	.	8gg\	.	.	.
8C/	.	8f 8c\	.	8b- 8g\	.	8bb-\	.	.	.	.	.	.	.	.	.	.	.	.	.	8c/	.	8g\	.	8gg\	.	.	.
8C/J	.	8f 8c\J	.	8b-J 8g\	.	8bb-\J	.	.	.	.	.	.	.	.	.	.	.	.	.	8c/J	.	8g\J	.	8gg\J	.	.	.
*Xtremolo	*	*Xtremolo	*	*	*	*	*	*	*	*	*	*	*	*	*	*	*	*	*	*Xtremolo	*	*Xtremolo	*	*	*	*	*
4C#X;/	.	4e 4c#X;\	.	4b- 4g;\	.	4ee;\	.	4C#X;/	-ctus	.	4e;\	-ctus	.	4g;\	-ctus	.	4b-;\	-ctus	.	4g;\	.	4b-\	.	4gg\	.	4bb-;\	.
*	*	*	*	*	*	*	*	*	*Xij	*	*	*Xij	*	*	*	*	*	*	*	*	*	*	*	*	*	*	*
4r;	.	4r;	.	4r;	.	4r;	.	4r;	.	.	4r;	.	.	4r;	.	.	4r;	.	.	4r;	.	4r;	.	4r;	.	4r;	.
!	!	!	!	!LO:LB:g=original	!	!	!	!	!	!	!	!	!	!	!	!	!	!	!	!	!	!	!	!	!	!	!
=4	=4	=4	=4	=4	=4	=4	=4	=4	=4	=4	=4	=4	=4	=4	=4	=4	=4	=4	=4	=4	=4	=4	=4	=4	=4	=4	=4
*tremolo	*	*	*	*	*	*	*	*	*	*	*	*	*	*	*	*	*	*	*	*	*	*	*	*	*	*	*
!	!	!	!LO:DY:b	!	!LO:DY:b	!	!LO:DY:a	!	!	!	!	!	!	!	!	!	!	!	!LO:DY:a:Bi:t=for	!	!	!	!	!	!	!	!
8D\L	.	16A/KL	f	16f#X/KL	f	(16dd\LL	f	4D\	Do-	.	4d\	Do-	.	4f#X\	Do-	.	4a\	Do-	f	8r	.	8r	.	8r	.	8ff#X\L	f
.	.	8A/	.	8f#/	.	16a\)	.	.	.	.	.	.	.	.	.	.	.	.	.	.	.	.	.	.	.	.	.
8D\	.	.	.	.	.	16dd'\	.	.	.	.	.	.	.	.	.	.	.	.	.	8A/	.	8a\	f	8dd\	f	8ff#\J	.
.	.	16A/Jk	.	16f#/Jk	.	16dd'\JJ	.	.	.	.	.	.	.	.	.	.	.	.	.	.	.	.	.	.	.	.	.
8D\	.	16c#X/KL	.	16g/KL	.	(16ee\LL	.	8D\	-mi-	.	8c#X\	-mi-	.	8g\	-mi-	.	8a\	-mi-	.	8r	.	8r	.	8r	.	8r	.
.	.	8c#/	.	8g/	.	16a\)	.	.	.	.	.	.	.	.	.	.	.	.	.	.	.	.	.	.	.	.	.
8D\J	.	.	.	.	.	16ee'\	.	8D\	-nus	.	8c#\	-nus	.	8g\	-nus	.	8a\	-nus	.	8A/	.	8a\	.	8cc#X\	.	8gg\	.
.	.	16c#/Jk	.	16g/Jk	.	16ee'\JJ	.	.	.	.	.	.	.	.	.	.	.	.	.	.	.	.	.	.	.	.	.
*	*	*custos:B	*	*	*	*	*	*custos:D	*	*	*	*	*	*	*	*	*	*	*	*	*	*	*	*	*	*	*
!	!	!LO:LB:g=original	!	!	!	!	!	!LO:LB:g=original	!	!	!	!	!	!	!	!	!	!	!	!	!	!	!	!	!	!	!
8D\L	.	16cn\KL	.	16a/KL	.	(16ff#X\LL	.	4D\	De-	.	4cn\	De-	.	4f#\	De-	.	4a\	De-	.	8r	.	8r	.	8r	.	8r	.
.	.	8c\	.	8a/	.	16dd\)	.	.	.	.	.	.	.	.	.	.	.	.	.	.	.	.	.	.	.	.	.
8D\	.	.	.	.	.	16ff#'\	.	.	.	.	.	.	.	.	.	.	.	.	.	8A/	.	8a\	.	8cc\	.	8aa\	.
.	.	16c\Jk	.	16a/Jk	.	16ff#'\JJ	.	.	.	.	.	.	.	.	.	.	.	.	.	.	.	.	.	.	.	.	.
8D\	.	16B-\KL	.	16b-/KL	.	(16gg\LL	.	4D\	-us	.	4B-\	-us	.	4g\	-us	.	4b-\	-us	.	8r	.	8r	.	8r	.	8r	.
.	.	8d\	.	8b-/	.	16dd\)	.	.	.	.	.	.	.	.	.	.	.	.	.	.	.	.	.	.	.	.	.
8D\J	.	.	.	.	.	16gg'\	.	.	.	.	.	.	.	.	.	.	.	.	.	8g\	.	8a\	.	8gg\	.	8bb-\	.
.	.	16d\Jk	.	16b-/Jk	.	16gg'\JJ	.	.	.	.	.	.	.	.	.	.	.	.	.	.	.	.	.	.	.	.	.
!LO:LB:g=original	!	!	!	!	!	!	!	!	!	!	!LO:LB:g=original	!	!	!LO:LB:g=original	!	!	!LO:LB:g=original	!	!	!LO:LB:g=original	!	!LO:LB:g=original	!	!LO:LB:g=original	!	!LO:LB:g=original	!
=5	=5	=5	=5	=5	=5	=5	=5	=5	=5	=5	=5	=5	=5	=5	=5	=5	=5	=5	=5	=5	=5	=5	=5	=5	=5	=5	=5
*	*	*	*	*	*	*	*	*	*	*	*	*	*	*	*	*	*	*	*	*tremolo	*	*tremolo	*	*	*	*	*
!	!	!	!	!	!	!LO:TX:t=P:problem=mixed beam	!	!	!	!	!	!	!	!	!	!	!	!	!	!	!	!	!	!	!	!	!
8D\L	.	16aKL 16f#X\	.	16cc/KL	.	16aa\LL	.	4.D\	Sa-	.	4.A\	Sa-	.	4.f#X\	Sa-	.	4.cc\	Sa-	.	8a\L	.	8a\L	.	8aa\L	.	8ccc\L	.
.	.	8a 8f#\	.	8cc/	.	16a/	.	.	.	.	.	.	.	.	.	.	.	.	.	.	.	.	.	.	.	.	.
8D\	.	.	.	.	.	16aa\	.	.	.	.	.	.	.	.	.	.	.	.	.	8a\	.	8a\	.	8a\	.	8cc\	.
.	.	8a 8f#\	.	8cc/	.	16gg\JJ	.	.	.	.	.	.	.	.	.	.	.	.	.	.	.	.	.	.	.	.	.
8D\	.	.	.	.	.	16ff#X\LL	.	.	.	.	.	.	.	.	.	.	.	.	.	8a\	.	8a\	.	8a\	.	8cc\	.
.	.	8a 8f#\	.	8cc/	.	16ee-X\	.	.	.	.	.	.	.	.	.	.	.	.	.	.	.	.	.	.	.	.	.
8D\J	.	.	.	.	.	16dd\	.	8D\	-ba-	.	8A\	-ba-	.	8f#\	-ba-	.	8cc\	-ba-	.	8a\J	.	8a\J	.	8a\J	.	8cc\J	.
.	.	16f#\Jk	.	16a/Jk	.	16cc\JJ	.	.	.	.	.	.	.	.	.	.	.	.	.	.	.	.	.	.	.	.	.
*Xtremolo	*	*	*	*	*	*	*	*	*	*	*	*	*	*	*	*	*	*	*	*Xtremolo	*	*Xtremolo	*	*	*	*	*
!	!	!	!	!	!	!	!	!	!	!	!	!	!	!LO:SIC:v:l:s=oth	!	!	!LO:SIC:v:l:s=oth	!	!	!	!	!	!	!	!	!	!
8D\L	.	16g\KL	.	16b-/KL	.	16b-\LL	.	4D\	-oth	.	4G/	-oth	.	4g\	-otch	.	4b-\	-oht	.	8g\L	.	8g\L	.	8g\L	.	8b-\L	.
.	.	8g\	.	8b-/	.	16gg\	.	.	.	.	.	.	.	.	.	.	.	.	.	.	.	.	.	.	.	.	.
8D\	.	.	.	.	.	16bb-\	.	.	.	.	.	.	.	.	.	.	.	.	.	8g\	.	8g\	.	8b-\	.	8dd\	.
.	.	8g\	.	8b-/	.	16aa\JJ	.	.	.	.	.	.	.	.	.	.	.	.	.	.	.	.	.	.	.	.	.
8D\	.	.	.	.	.	16gg\LL	.	4r	.	.	4r	.	.	4r	.	.	4r	.	.	8g\J	.	8g\J	.	8b-\	.	8.gg\	.
.	.	8g\	.	8b-/	.	16dd\	.	.	.	.	.	.	.	.	.	.	.	.	.	.	.	.	.	.	.	.	.
8D#X\J	.	.	.	.	.	16gg\	.	.	.	.	.	.	.	.	.	.	.	.	.	8r	.	8r	.	8b-\J	.	.	.
.	.	16g\Jk	.	16b-/Jk	.	16ffn\JJ	.	.	.	.	.	.	.	.	.	.	.	.	.	.	.	.	.	.	.	16ff\Jk	.
=6	=6	=6	=6	=6	=6	=6	=6	=6	=6	=6	=6	=6	=6	=6	=6	=6	=6	=6	=6	=6	=6	=6	=6	=6	=6	=6	=6
*tremolo	*	*	*	*	*	*	*	*	*	*	*	*	*	*	*	*	*	*	*	*	*	*	*	*	*	*	*
8C/L	.	16c\KL	.	16g/KL	.	(16ee\LL	.	4C/	Do-	.	4c\	Do-	.	4e\	Do-	.	4cc\	Do-	.	4c/	.	4g\	.	4cc\	.	4ee\	.
.	.	8c\	.	8e/	.	16cc\)	.	.	.	.	.	.	.	.	.	.	.	.	.	.	.	.	.	.	.	.	.
8C/	.	.	.	.	.	16cc'\	.	.	.	.	.	.	.	.	.	.	.	.	.	.	.	.	.	.	.	.	.
.	.	16c\Jk	.	16e/Jk	.	16cc'\JJ	.	.	.	.	.	.	.	.	.	.	.	.	.	.	.	.	.	.	.	.	.
*	*	*	*	*	*	*custos:a	*	*	*	*	*	*	*	*	*	*	*	*	*	*	*	*	*	*	*	*	*
!	!	!	!	!	!	!LO:LB:g=original	!	!	!	!	!	!	!	!	!	!	!	!	!	!	!	!	!	!	!	!	!
8C/	.	16Bn/KL	.	16f/KL	.	(16dd\LL	.	8C/	-mi-	.	8Bn\	-mi-	.	8fn\	-mi-	.	8dd\	-mi-	.	8f\L	.	8f\L	.	4bX\	.	4ff\	.
.	.	8B/	.	8f/	.	16a\)	.	.	.	.	.	.	.	.	.	.	.	.	.	.	.	.	.	.	.	.	.
8C/J	.	.	.	.	.	16dd'\	.	8C/	-nus	.	8B\	-nus	.	8f\	-nus	.	8dd\	-nus	.	8f\J	.	8f\J	.	.	.	.	.
.	.	16B/Jk	.	16f/Jk	.	16dd'\JJ	.	.	.	.	.	.	.	.	.	.	.	.	.	.	.	.	.	.	.	.	.
8C/L	.	16B-X/KL	.	16g/KL	.	(16ee\LL	.	4C/	De-	.	4B-X\	De-	.	4g\	De-	.	4ee\	De-	.	4c/	.	4g\	.	4b-\	.	4gg\	.
.	.	8B-/	.	8g/	.	16cc\)	.	.	.	.	.	.	.	.	.	.	.	.	.	.	.	.	.	.	.	.	.
8C/	.	.	.	.	.	16ee'\	.	.	.	.	.	.	.	.	.	.	.	.	.	.	.	.	.	.	.	.	.
.	.	16B-/Jk	.	16g/Jk	.	16ee'\JJ	.	.	.	.	.	.	.	.	.	.	.	.	.	.	.	.	.	.	.	.	.
8C/	.	16A/KL	.	16aKL 16f/	.	(16ff\LL	.	4C/	-us	.	4A\	-us	.	4a\	-us	.	4ff\	-us	.	4A/	.	4f\	.	8g\L	.	4aa\	.
.	.	8c/	.	8a 8f/	.	16cc\)	.	.	.	.	.	.	.	.	.	.	.	.	.	.	.	.	.	.	.	.	.
8C/J	.	.	.	.	.	16ff'\	.	.	.	.	.	.	.	.	.	.	.	.	.	.	.	.	.	8cc\J	.	.	.
.	.	16c/Jk	.	16aJk 16f/	.	16ff'\JJ	.	.	.	.	.	.	.	.	.	.	.	.	.	.	.	.	.	.	.	.	.
!	!	!	!	!LO:LB:g=original	!	!	!	!	!	!	!	!	!	!	!	!	!	!	!	!	!	!	!	!	!	!	!
=7	=7	=7	=7	=7	=7	=7	=7	=7	=7	=7	=7	=7	=7	=7	=7	=7	=7	=7	=7	=7	=7	=7	=7	=7	=7	=7	=7
8C/L	.	16eKL 16c\	.	16b-/KL	.	(16gg\LL	.	4C/	Do-	.	4e\	Do-	.	4b-\	Do-	.	4gg\	Do-	.	2c/	.	2g\	.	2gg\	.	2bb-\	.
.	.	8e 8c\	.	8b-/	.	16ee\)	.	.	.	.	.	.	.	.	.	.	.	.	.	.	.	.	.	.	.	.	.
8C/	.	.	.	.	.	16bb-'\	.	.	.	.	.	.	.	.	.	.	.	.	.	.	.	.	.	.	.	.	.
.	.	8e 8c\	.	8b-/	.	16gg'\JJ	.	.	.	.	.	.	.	.	.	.	.	.	.	.	.	.	.	.	.	.	.
8C/	.	.	.	.	.	16ee\LL	.	8C/	-mi-	.	8e\	-mi-	.	8g\	-mi-	.	8b-\	-mi-	.	.	.	.	.	.	.	.	.
.	.	8e 8c\	.	8g/	.	16cc\	.	.	.	.	.	.	.	.	.	.	.	.	.	.	.	.	.	.	.	.	.
8C/J	.	.	.	.	.	16b-\	.	8C/	-nus	.	8e\	-nus	.	8g\	-nus	.	8b-\	-nus	.	.	.	.	.	.	.	.	.
.	.	16eJk 16c\	.	16g/Jk	.	16g\JJ	.	.	.	.	.	.	.	.	.	.	.	.	.	.	.	.	.	.	.	.	.
*	*	*custos:B	*	*	*	*	*	*	*	*	*	*	*	*	*	*	*	*	*	*	*	*	*	*	*	*	*
!	!	!LO:LB:g=original	!	!	!	!LO:TX:t=P:problem=mixed beam	!	!	!	!	!	!	!	!	!	!	!	!	!	!	!	!	!	!	!	!	!
8C/L	.	16fKL 16c\	.	16aKL 16f/	.	16a/LL	.	4C/	De-	.	4f\	De-	.	4f\	De-	.	4a\	De-	.	2A/	.	2f\	.	2ff\	.	2aa\	.
.	.	8c\	.	8a 8f/	.	16aa\	.	.	.	.	.	.	.	.	.	.	.	.	.	.	.	.	.	.	.	.	.
8C/	.	.	.	.	.	16ccc\	.	.	.	.	.	.	.	.	.	.	.	.	.	.	.	.	.	.	.	.	.
.	.	8c\	.	8a 8f/	.	16aa\JJ	.	.	.	.	.	.	.	.	.	.	.	.	.	.	.	.	.	.	.	.	.
8C/	.	.	.	.	.	16ff\LL	.	4C/	-us	.	4c\	-us	.	4a\	-us	.	4ff\	-us	.	.	.	.	.	.	.	.	.
.	.	8c\	.	8a 8f/	.	16cc\	.	.	.	.	.	.	.	.	.	.	.	.	.	.	.	.	.	.	.	.	.
8C/J	.	.	.	.	.	16a\	.	.	.	.	.	.	.	.	.	.	.	.	.	.	.	.	.	.	.	.	.
.	.	16c\Jk	.	16aJk 16f/	.	16f\JJ	.	.	.	.	.	.	.	.	.	.	.	.	.	.	.	.	.	.	.	.	.
=8	=8	=8	=8	=8	=8	=8	=8	=8	=8	=8	=8	=8	=8	=8	=8	=8	=8	=8	=8	=8	=8	=8	=8	=8	=8	=8	=8
!	!	!	!	!	!	!LO:TX:t=P:problem=mixed beam	!	!	!	!	!	!	!	!	!	!	!	!	!	!	!	!	!	!	!	!	!
8C/L	.	16dKL 16G/	.	16bnKL 16f/	.	16d/LL	.	4.C/	Sa-	.	4.G/	Sa-	.	4.f\	Sa-	.	4.bn\	Sa-	.	2g\	.	2g\	.	2bX\	.	2ff\	.
.	.	8d 8G/	.	8b 8f/	.	16bbn\	.	.	.	.	.	.	.	.	.	.	.	.	.	.	.	.	.	.	.	.	.
8C/	.	.	.	.	.	16ddd\	.	.	.	.	.	.	.	.	.	.	.	.	.	.	.	.	.	.	.	.	.
.	.	8d 8G/	.	8b 8f/	.	16bb\JJ	.	.	.	.	.	.	.	.	.	.	.	.	.	.	.	.	.	.	.	.	.
8C/	.	.	.	.	.	(16gg\LL	.	.	.	.	.	.	.	.	.	.	.	.	.	.	.	.	.	.	.	.	.
.	.	8d 8G/	.	8b 8f/	.	16ff\)	.	.	.	.	.	.	.	.	.	.	.	.	.	.	.	.	.	.	.	.	.
8C/J	.	.	.	.	.	16dd'\	.	8C/	-ba-	.	8G/	-ba-	.	8f\	-ba-	.	8b\	-ba-	.	.	.	.	.	.	.	.	.
!	!	!	!	!	!	!LO:SIC:v:s=16bn'\JJ	!	!	!	!	!	!	!	!	!	!	!	!	!	!	!	!	!	!	!	!	!
.	.	16dJk 16G/	.	16bJk 16f/	.	16b-'\JJ	.	.	.	.	.	.	.	.	.	.	.	.	.	.	.	.	.	.	.	.	.
*Xtremolo	*	*	*	*	*	*	*	*	*	*	*	*	*	*	*	*	*	*	*	*	*	*	*	*	*	*	*
!LO:TX:t=P:problem=mixed beam	!	!	!	!	!	!LO:TX:t=P:problem=mixed beam	!	!	!	!	!	!	!	!	!	!	!	!	!	!	!	!	!	!LO:TX:t=P:problem=mixed beam	!	!	!
=-	=-	=-	=-	=	=-	=-	=-	=-	=-	=-	=-	=-	=-	=-	=-	=-	=-	=-	=-	=-	=-	=-	=-	=-	=-	=-	=-
8C/L	.	16c\KL	.	16ccKL 16e/	.	16cc\LL	.	4C/	-oth	.	4G/	-oth.	.	4e\	-oth	.	4cc\	-oth	.	2c/	.	2g\	.	8cc\L	.	8ee\L	.
.	.	8c\	.	8e 8G/	.	16c/	.	.	.	.	.	.	.	.	.	.	.	.	.	.	.	.	.	.	.	.	.
8c\	.	.	.	.	.	16e/	.	.	.	.	.	.	.	.	.	.	.	.	.	.	.	.	.	8e/	.	8cc\	.
.	.	8c\	.	8e 8G/	.	16g/JJ	.	.	.	.	.	.	.	.	.	.	.	.	.	.	.	.	.	.	.	.	.
8G\	.	.	.	.	.	16cc\LL	.	4r	.	.	4r	.	.	4r	.	.	4r	.	.	.	.	.	.	8g/	.	8ee\	.
.	.	8c\	.	8e 8G/	.	16ccsSSs\	.	.	.	.	.	.	.	.	.	.	.	.	.	.	.	.	.	.	.	.	.
8E\J	.	.	.	.	.	16ee\	.	.	.	.	.	.	.	.	.	.	.	.	.	.	.	.	.	8cc/J	.	8gg\J	.
.	.	16c\Jk	.	16eJk 16G/	.	16gg\JJ	.	.	.	.	.	.	.	.	.	.	.	.	.	.	.	.	.	.	.	.	.
!	!	!	!	!	!	!LO:LB:g=original	!	!	!	!	!	!	!	!	!	!	!	!	!	!	!	!	!	!	!	!	!
=9	=9	=9	=9	=9	=9	=9	=9	=9	=9	=9	=9	=9	=9	=9	=9	=9	=9	=9	=9	=9	=9	=9	=9	=9	=9	=9	=9
*tremolo	*	*	*	*	*	*	*	*	*	*	*	*	*	*	*	*	*	*	*	*tremolo	*	*	*	*	*	*	*
8C/L	.	16c/LL	.	8eL 8G/	.	8ccc\L	.	1r;	.	.	1r;	.	.	1r;	.	.	1r;	.	.	8c/L	.	8g\L	.	8cc\L	.	8ee\L	.
.	.	16C/	.	.	.	.	.	.	.	.	.	.	.	.	.	.	.	.	.	.	.	.	.	.	.	.	.
8C/	.	16E/	.	8e 8G/	.	8cc\	.	.	.	.	.	.	.	.	.	.	.	.	.	8c/	.	8g\	.	8cc\	.	8ee\	.
.	.	16G/JJ	.	.	.	.	.	.	.	.	.	.	.	.	.	.	.	.	.	.	.	.	.	.	.	.	.
8C/	.	16c/LL	.	8e 8G/	.	8cc\	.	.	.	.	.	.	.	.	.	.	.	.	.	8c/	.	8g\	.	8cc\	.	8ee\	.
.	.	16C/	.	.	.	.	.	.	.	.	.	.	.	.	.	.	.	.	.	.	.	.	.	.	.	.	.
8C/J	.	16E/	.	8eJ 8G/	.	8cc\J	.	.	.	.	.	.	.	.	.	.	.	.	.	8c/J	.	8g\J	.	8cc\J	.	8ee\J	.
.	.	16G/JJ	.	.	.	.	.	.	.	.	.	.	.	.	.	.	.	.	.	.	.	.	.	.	.	.	.
*Xtremolo	*	*	*	*	*	*	*	*	*	*	*	*	*	*	*	*	*	*	*	*Xtremolo	*	*	*	*	*	*	*
4C;/	.	4e;\	.	4e;/	.	4cc 4e;/	.	.	.	.	.	.	.	.	.	.	.	.	.	4c;/	.	4g;\	.	4cc;\	.	4ee;\	.
4r;	.	4r	.	4r;	.	4r;	.	.	.	.	.	.	.	.	.	.	.	.	.	4r	.	4r	.	4r;	.	4r;	.
!	!	!	!	!	!	!	!	!	!	!	!	!	!	!	!	!	!	!	!	!	!	!	!	!	!	!LO:TX:b:t=Verte	!
==	==	==	==	==	==	==	==	==	==	==	==	==	==	==	==	==	==	==	==	==	==	==	==	==	==	==	==
*-	*-	*-	*-	*-	*-	*-	*-	*-	*-	*-	*-	*-	*-	*-	*-	*-	*-	*-	*-	*-	*-	*-	*-	*-	*-	*-	*-
!!!system-decoration: [g1][g2][g3][g4]g5
!!!RDF**dynam: p = "p.", fontstyle="bold-italic"
!!!RDF**dynam: f = "for.", fontstyle="bold-italic"
!!!ENC: Katarzyna Serwa
!!!END: 2022-02-02
!!!ENC: Katarzyna Serwa
!!!END: 2020-09-15
